build/img/icon-looking-glass-grey.svg

<svg width="17" height="16" viewBox="0 0 17 16" fill="none" xmlns="http://www.w3.org/2000/svg">
<path d="M15.6401 13.28L13.4001 11.04C14.1201 9.92 14.5201 8.64 14.5201 7.2C14.5201 3.2 11.3201 0 7.32012 0C3.32012 0 0.120117 3.2 0.120117 7.2C0.120117 11.2 3.32012 14.4 7.32012 14.4C8.76012 14.4 10.0401 14 11.1601 13.28L13.4001 15.52C14.0401 16.16 15.0001 16.16 15.6401 15.52C16.2801 14.88 16.2801 13.92 15.6401 13.28ZM7.32012 12.8C4.20012 12.8 1.72012 10.32 1.72012 7.2C1.72012 4.08 4.20012 1.6 7.32012 1.6C10.4401 1.6 12.9201 4.08 12.9201 7.2C12.9201 10.32 10.3601 12.8 7.32012 12.8Z" fill="#B1BAC7"/>
</svg>

<svg width="17" height="16" fill="none" xmlns="http://www.w3.org/2000/svg"><path d="M15.64 13.28l-2.24-2.24c.72-1.12 1.12-2.4 1.12-3.84 0-4-3.2-7.2-7.2-7.2S.12 3.2.12 7.2s3.2 7.2 7.2 7.2c1.44 0 2.72-.4 3.84-1.12l2.24 2.24c.64.64 1.6.64 2.24 0 .64-.64.64-1.6 0-2.24zm-8.32-.48c-3.12 0-5.6-2.48-5.6-5.6 0-3.12 2.48-5.6 5.6-5.6 3.12 0 5.6 2.48 5.6 5.6 0 3.12-2.56 5.6-5.6 5.6z" fill="#B1BAC7"/></svg>
